ui/StatusQ/src/assets/img/icons/bigger/profile.svg

<svg fill="none" height="24" viewBox="0 0 24 24" width="24" xmlns="http://www.w3.org/2000/svg"><g clip-rule="evenodd" fill="#939ba1" fill-rule="evenodd"><path d="m15.75 9c0 2.0711-1.6789 3.75-3.75 3.75-2.07107 0-3.75-1.6789-3.75-3.75 0-2.07107 1.67893-3.75 3.75-3.75 2.0711 0 3.75 1.67893 3.75 3.75zm-1.5 0c0 1.2426-1.0074 2.25-2.25 2.25s-2.25-1.0074-2.25-2.25c0-1.24264 1.0074-2.25 2.25-2.25s2.25 1.00736 2.25 2.25z"/><path d="m23 12c0 6.0751-4.9249 11-11 11-6.07513 0-11-4.9249-11-11 0-6.07513 4.92487-11 11-11 6.0751 0 11 4.92487 11 11zm-1.5 0c0 5.2467-4.2533 9.5-9.5 9.5-5.24671 0-9.5-4.2533-9.5-9.5 0-5.24671 4.25329-9.5 9.5-9.5 5.2467 0 9.5 4.25329 9.5 9.5z"/><path d="m6.99199 16.3857-.00455.0043c-.30239.2831-.31804.7577-.03496 1.0601.28296.3022.7573.318 1.0597.0353l-.00089.0008.00876-.0079c.00916-.0081.02491-.022.047-.0407.04421-.0374.11363-.094.20648-.1636.18609-.1394.4638-.3289.819-.5191.71303-.3818 1.71597-.7549 2.90747-.7549s2.1944.3731 2.9075.7549c.3552.1902.6329.3797.819.5191.0928.0696.1622.1262.2065.1636.022.0187.0378.0326.047.0407l.0087.0079c.3024.2823.776.266 1.0588-.0361.2831-.3024.2674-.777-.0349-1.0601l-.0009-.0008-.0011-.001-.0026-.0025-.0072-.0066-.0226-.0203c-.0185-.0166-.0441-.039-.0766-.0665-.0649-.0549-.1574-.13-.2757-.2187-.2362-.1769-.5777-.4094-1.0103-.641-.8626-.4619-2.1097-.9326-3.6156-.9326s-2.75296.4707-3.61558.9326c-.43263.2316-.77415.4641-1.01034.641-.1183.0887-.21078.1638-.27568.2187-.03247.0275-.05809.0499-.07664.0665l-.02252.0203-.00725.0066-.00262.0025-.00105.001z"/></g></svg>

<svg width="24" height="24" viewBox="0 0 24 24" fill="none" xmlns="http://www.w3.org/2000/svg">
<path fill-rule="evenodd" clip-rule="evenodd" d="M15.75 9C15.75 11.0711 14.0711 12.75 12 12.75C9.92893 12.75 8.25 11.0711 8.25 9C8.25 6.92893 9.92893 5.25 12 5.25C14.0711 5.25 15.75 6.92893 15.75 9ZM14.25 9C14.25 10.2426 13.2426 11.25 12 11.25C10.7574 11.25 9.75 10.2426 9.75 9C9.75 7.75736 10.7574 6.75 12 6.75C13.2426 6.75 14.25 7.75736 14.25 9Z" fill="#939BA1"/>
<path fill-rule="evenodd" clip-rule="evenodd" d="M23 12C23 18.0751 18.0751 23 12 23C5.92487 23 1 18.0751 1 12C1 5.92487 5.92487 1 12 1C18.0751 1 23 5.92487 23 12ZM21.5 12C21.5 17.2467 17.2467 21.5 12 21.5C6.75329 21.5 2.5 17.2467 2.5 12C2.5 6.75329 6.75329 2.5 12 2.5C17.2467 2.5 21.5 6.75329 21.5 12Z" fill="#939BA1"/>
<path fill-rule="evenodd" clip-rule="evenodd" d="M6.99199 16.3857L6.98744 16.39C6.68505 16.6731 6.6694 17.1477 6.95248 17.4501C7.23544 17.7523 7.70978 17.7681 8.01218 17.4854L8.01129 17.4862L8.02005 17.4783C8.02921 17.4702 8.04496 17.4563 8.06705 17.4376C8.11126 17.4002 8.18068 17.3436 8.27353 17.274C8.45962 17.1346 8.73733 16.9451 9.09253 16.7549C9.80556 16.3731 10.8085 16 12 16C13.1915 16 14.1944 16.3731 14.9075 16.7549C15.2627 16.9451 15.5404 17.1346 15.7265 17.274C15.8193 17.3436 15.8887 17.4002 15.933 17.4376C15.955 17.4563 15.9708 17.4702 15.98 17.4783L15.9887 17.4862C16.2911 17.7685 16.7647 17.7522 17.0475 17.4501C17.3306 17.1477 17.3149 16.6731 17.0126 16.39L17.0117 16.3892L17.0106 16.3882L17.008 16.3857L17.0008 16.3791L16.9782 16.3588C16.9597 16.3422 16.9341 16.3198 16.9016 16.2923C16.8367 16.2374 16.7442 16.1623 16.6259 16.0736C16.3897 15.8967 16.0482 15.6642 15.6156 15.4326C14.753 14.9707 13.5059 14.5 12 14.5C10.4941 14.5 9.24704 14.9707 8.38442 15.4326C7.95179 15.6642 7.61027 15.8967 7.37408 16.0736C7.25578 16.1623 7.1633 16.2374 7.0984 16.2923C7.06593 16.3198 7.04031 16.3422 7.02176 16.3588L6.99924 16.3791L6.99199 16.3857L6.98937 16.3882L6.98832 16.3892L6.99199 16.3857Z" fill="#939BA1"/>
</svg>
